public/images/web-mobile-design.svg

<svg fill="none" height="168" viewBox="0 0 212 168" width="212" xmlns="http://www.w3.org/2000/svg"><g stroke-width="2"><path d="m92.5304 135.725v30.072m0 0h-28.9043m28.9043 0h28.9046m-63.8307-145.5506h-37.3347v96.2316h37.3347m0-96.2316h107.1867v42.7536m-107.1867-42.7536v96.2316m0 0h98.3957m12.073-53.478 5.366 8.1039h10.622 10.171l5.366-8.1039m-27.5 97.247h23.475m-39.573-24.522v22.275c0 4.971 4.029 9 9 9h37c4.971 0 9-4.029 9-9v-86c0-4.9706-4.029-9-9-9h-17.939m-28.061 72.725h-155v-134.725h183.061v62m-28.061 72.725v-19.247m0 0v-44.6867c0-4.8553 3.936-8.7913 8.791-8.7913m0 0h19.27" stroke="#000"/><path d="m57.6055 21.25v94.25" stroke="#40d251"/></g></svg>

<svg width="212" height="168" viewBox="0 0 212 168" fill="none" xmlns="http://www.w3.org/2000/svg">
<path d="M92.5304 135.725V165.797M92.5304 165.797H63.6261M92.5304 165.797H121.435M57.6043 20.2464H20.2696V116.478H57.6043M57.6043 20.2464H164.791V63M57.6043 20.2464V116.478M57.6043 116.478H156M168.073 63L173.439 71.1039H184.061H194.232L199.598 63M172.098 160.247H195.573M156 135.725V158C156 162.971 160.029 167 165 167H202C206.971 167 211 162.971 211 158V72C211 67.0294 206.971 63 202 63H184.061M156 135.725H1V1H184.061V63M156 135.725V116.478M156 116.478V71.7913C156 66.936 159.936 63 164.791 63V63M164.791 63H184.061" stroke="black" stroke-width="2"/>
<path d="M57.6055 21.25V115.5" stroke="#40D251" stroke-width="2"/>
</svg>
